X:17
T:17.  Houbin's Windmill Jig
C:c 1984 Harry Bolick 
R:breakdown
O:United States
A:Brooklyn, New York
M:6/8
L:1/8
Q:200
K:Dm
|:"Dm" F>FF "Am"EFE |"Dm" DED "C" CB,G,|"Am" A,B,/2A,/2G,  A,B,/2A,/2G,|"F" FED "C" CDE|
"Dm" F>FF "Am"EFE |"Dm" DED "C" CB,G,|"Am"A,A,/2B,/2C "Dm"DEF |"F" AFE "Dm"D3 :|
|: "F" FF/2F/2F AGA|"C" cdc "F" A3|"C" ged "F" fed| "C" gag "Am"a3|
"Gm"bag "Dm"agf|"C" gfe "Dm"fed|"C"cde "Dm"fdf|"Am"agf "Dm"d3 :|
